X: 100
T: No_195_Friendly_Song_(d).krn
N: Derived from No_195_Friendly_Song_(d).krn
%%abc-version 2.0
%%abcx-abcm2ps-target-version 5.9.1 (29 Sep 2008)
%%abc-creator hum2abc beta
%%abcx-conversion-date 2019/03/15 08:29:13
%%humdrum-veritas 1201466123
%%humdrum-veritas-data 1931175889
%%linebreak <none>
%%barnumbers 0
L: 1/8
M: 3/4
K: D clef=bass
[K:clef=bass][M:3/4]D3/C/B,2D2 | 
D6 ||  
[M:2/4]D3/D/D2 ||  
[M:3/4]C3/C/C2C2 ||  
[M:2/4]A,3/A,/A,2 | 
F,2F,2 | 
E,3/E,/E,2 ||  
[M:3/4]D,3/D,/D,2B,,2 | 
{/E,}E,2E,3/E,/E,2 ||  
[M:2/4]E,4 | 
E,3/E,/E,2 | 
F,E,-E,2 | 
{/F,} !wedge!E,!wedge!D,B,,2 | 
B,,2-B,,3/B,,/ ||  
[M:3/4]B,,6 ||  
[M:2/4]D3/D/ B,3/B,/ | 
D2D2 | 
D3/D/ (3DDD | 
C3/C/ C3/C/ | 
B,3/B,/ B,3/G,/ | 
F,3/F,/F,2 | 
E,3/E,/E,2 ||  
[M:3/4]D,3/D,/D,2B,,2 ||  
[M:2/4]E,3/E,/E,2- | 
E,4 | 
E,3/E,/E,2 | 
!accent!F,E,-E,2 | 
{/F,} E,D, B,,3/B,,/ ||  
[M:3/4]B,,6 |]  



